X: 19
T: Christmas Eve
C: Tommy Coen
Z: Owen H
S: https://thesession.org/tunes/440#setting49089
R: reel
M: 4/4
L: 1/8
K: Gmaj
|:GE|D2DE G2GA|B2dB ABGB|ABGE DB,DE|G2BG ABGE|
DB,DE GFGA|B2dB ABGA|BA~A2GEEG|ABGE G2:|
|:GA|BABd edeg|abge g2eg|a2ge g2ge|dedB A2GA|
BABd edeg|abge g2eg|a2ge d2BG|ABGE G2:|
|:dc|BG~G2 DGBd|egg2 egdc|BG~G2 BBAG|EAA2 EAA2|
BGG2 DGBd|egg2 egdg|bgaf gedB|ABGE G2:|

